X: 20140
T: Jittery Legs
R: hornpipe
M: 4/4
K: Fdorian
GF|E2B,E GF (3GAB|cB=AB GEB,A,|G,B,EF GEcB|GFFE FBcB|
(3GAG FE CB,G,B,|A,CFG ABcB|dc=Bc AFDB,|1 =A,B,GF E2:|2 =A,B,GF EG (3Bcd||
|:eB~B2 gfec|dG=Bd fede|cGED CEAG|(3FGF (3EDC B,2B,A,|
G,B,EA G=B,DF|Ec~c2 fede|geBG =EFDB,|1 =A,B,GF EG (3Bcd:|2 =A,B,GF E2||

